X:1
T:Shippards Wife, The, an auld Highland Air
M:6/8
L:1/8
R:Air
Q:"Very Slow"
B:Robert Petrie - Third Collection of Strathspey Reels (1802, p. 11)
N:Dedicated to Francis Garden Esq. Junior of Troup by
N:Robert Petrie at Kirkmichael.
Z:AK/Fiddler's Companion
K:Eb
B,|E2F G2A|{G}B2e d2c|c>de BAG|FGE DCB,|
E2F G2A|B2e d2B|c>de {g}fed|eee e2:|
|:ef|g>ag fed|e>fe d2B| c>de BAG|FGE DCB,|
g>ag f2b|e>fe d2g|c>de {g}fed|[G3B3e3]-[G2B2e2]e/f/|
g>ag fed|e>fe d2B|c>de BAG|FGE DCB,|
E2F G2A|B2e edc|c>de fed|[GBd][GBd][GBd] [G2B2d2]||

